flaticon/transport/loader-2.svg

<svg xmlns="http://www.w3.org/2000/svg" width="32" height="32" viewBox="0 0 24 24">
    <path d="M15.199219 18.199219C14.761719 18.199219 14.398438 18.558594 14.398438 19 14.398438 19.441406 14.761719 19.800781 15.199219 19.800781 15.640625 19.800781 16 19.441406 16 19 16 18.558594 15.640625 18.199219 15.199219 18.199219zM5.199219 15.800781C4.761719 15.800781 4.398438 16.160156 4.398438 16.601562 4.398438 17.039062 4.761719 17.398438 5.199219 17.398438 5.640625 17.398438 6 17.039062 6 16.601562 6 16.160156 5.640625 15.800781 5.199219 15.800781zM4.800781 10.601562L8.28125 10.601562C8.519531 10.601562 8.761719 10.480469 8.878906 10.28125 9.039062 10.039062 9.078125 9.800781 9 9.558594L8.441406 7.558594C8.359375 7.238281 8.039062 7 7.679688 7L4.800781 7C4.359375 7 4 7.359375 4 7.800781L4 9.800781C4 10.238281 4.359375 10.601562 4.800781 10.601562zM4.800781 7.800781L7.679688 7.800781 8.28125 9.800781 4.800781 9.800781zM4.800781 7.800781"/>
    <path d="M 23.960938 12.011719 L 23.960938 9.039062 C 23.960938 8.800781 23.800781 8.640625 23.558594 8.640625 L 23.035156 8.640625 L 19.523438 3.636719 C 19.28125 2.796875 18.523438 2.199219 17.601562 2.199219 C 16.480469 2.199219 15.601562 3.078125 15.601562 4.199219 C 15.601562 4.210938 15.601562 4.21875 15.601562 4.230469 L 11.375 10.109375 L 10.601562 6.640625 C 10.441406 5.921875 9.800781 5.398438 9.039062 5.398438 L 3.601562 5.398438 C 2.71875 5.398438 2 6.121094 2 7 L 2 12.496094 C 0.78125 13.445312 0 14.929688 0 16.601562 C 0 19.480469 2.320312 21.800781 5.199219 21.800781 C 7.214844 21.800781 8.953125 20.667969 9.816406 19 L 12.398438 19 C 12.398438 20.558594 13.640625 21.800781 15.199219 21.800781 C 16.761719 21.800781 18 20.558594 18 19 L 18.398438 19 C 18.761719 19 19.121094 18.800781 19.28125 18.480469 L 20.71875 14.398438 C 20.878906 14.121094 20.839844 13.761719 20.679688 13.480469 C 20.480469 13.160156 20.199219 13 19.839844 13 L 13.214844 13 L 18.085938 6.140625 C 18.160156 6.125 18.230469 6.105469 18.296875 6.078125 L 19.726562 8.640625 L 18.761719 8.640625 C 18.640625 8.640625 18.519531 8.679688 18.441406 8.800781 C 18.359375 8.878906 18.359375 9.039062 18.398438 9.160156 L 18.761719 10 C 19.359375 11.320312 20.640625 12.28125 22.078125 12.441406 L 23.148438 12.554688 C 23.003906 13.054688 22.554688 13.398438 22 13.398438 C 21.761719 13.398438 21.601562 13.558594 21.601562 13.800781 C 21.601562 14.039062 21.761719 14.199219 22 14.199219 C 23.121094 14.199219 24 13.320312 24 12.199219 C 24 12.128906 23.984375 12.066406 23.960938 12.011719 Z M 17.601562 3 C 18.28125 3 18.800781 3.519531 18.800781 4.199219 C 18.800781 4.226562 18.800781 4.25 18.796875 4.273438 C 18.796875 4.273438 18.796875 4.277344 18.796875 4.277344 C 18.78125 4.523438 18.6875 4.769531 18.53125 4.972656 C 18.3125 5.238281 17.980469 5.398438 17.601562 5.398438 C 17.042969 5.398438 16.550781 4.984375 16.421875 4.441406 C 16.40625 4.363281 16.398438 4.285156 16.398438 4.199219 C 16.398438 3.519531 16.921875 3 17.601562 3 Z M 9.199219 18.441406 L 9.054688 18.734375 C 8.917969 18.976562 8.761719 19.207031 8.582031 19.421875 L 7.480469 18.320312 C 7.320312 18.160156 7.078125 18.160156 6.921875 18.320312 C 6.761719 18.480469 6.761719 18.71875 6.921875 18.878906 L 8.023438 19.980469 C 7.355469 20.539062 6.519531 20.898438 5.601562 20.980469 L 5.601562 19.398438 C 5.601562 19.160156 5.441406 19 5.199219 19 C 4.960938 19 4.800781 19.160156 4.800781 19.398438 L 4.800781 20.980469 C 3.878906 20.898438 3.042969 20.539062 2.378906 19.980469 L 3.480469 18.878906 C 3.640625 18.71875 3.640625 18.480469 3.480469 18.320312 C 3.320312 18.160156 3.078125 18.160156 2.921875 18.320312 L 1.816406 19.421875 C 1.261719 18.753906 0.898438 17.917969 0.816406 17 L 2.398438 17 C 2.640625 17 2.800781 16.839844 2.800781 16.601562 C 2.800781 16.359375 2.640625 16.199219 2.398438 16.199219 L 0.816406 16.199219 C 0.898438 15.28125 1.261719 14.445312 1.816406 13.777344 L 2.960938 14.921875 C 3.039062 15 3.121094 15.039062 3.238281 15.039062 C 3.320312 15.039062 3.441406 15 3.519531 14.921875 C 3.679688 14.761719 3.679688 14.519531 3.519531 14.359375 L 2.378906 13.21875 L 2.640625 13.039062 C 3.257812 12.585938 3.953125 12.316406 4.6875 12.230469 C 4.726562 12.226562 4.761719 12.222656 4.800781 12.21875 L 4.800781 13.800781 C 4.800781 14.039062 4.960938 14.199219 5.199219 14.199219 C 5.441406 14.199219 5.601562 14.039062 5.601562 13.800781 L 5.601562 12.21875 C 6.484375 12.296875 7.328125 12.644531 8.015625 13.222656 L 6.878906 14.359375 C 6.71875 14.519531 6.71875 14.761719 6.878906 14.921875 C 6.960938 15 7.039062 15.039062 7.160156 15.039062 C 7.28125 15.039062 7.398438 15 7.441406 14.921875 L 8.574219 13.789062 C 9.148438 14.46875 9.5 15.3125 9.582031 16.199219 L 8 16.199219 C 7.761719 16.199219 7.601562 16.359375 7.601562 16.601562 C 7.601562 16.839844 7.761719 17 8 17 L 9.582031 17 C 9.542969 17.445312 9.4375 17.867188 9.277344 18.261719 C 9.253906 18.320312 9.226562 18.378906 9.199219 18.441406 Z M 2.800781 7 C 2.800781 6.558594 3.160156 6.199219 3.601562 6.199219 L 9 6.199219 C 9.398438 6.199219 9.71875 6.480469 9.800781 6.839844 L 11.199219 13 L 8.960938 13 C 8.945312 12.988281 8.933594 12.972656 8.917969 12.960938 C 7.976562 11.996094 6.660156 11.398438 5.199219 11.398438 C 5.152344 11.398438 5.101562 11.402344 5.050781 11.402344 C 5.039062 11.402344 5.023438 11.402344 5.011719 11.402344 C 4.976562 11.40625 4.9375 11.40625 4.902344 11.410156 C 4.886719 11.410156 4.875 11.410156 4.859375 11.410156 C 4.820312 11.414062 4.785156 11.417969 4.746094 11.417969 C 4.734375 11.421875 4.722656 11.421875 4.714844 11.421875 C 4.667969 11.425781 4.625 11.429688 4.582031 11.4375 C 4.578125 11.4375 4.574219 11.4375 4.570312 11.4375 C 3.9375 11.515625 3.339844 11.703125 2.800781 11.984375 Z M 15.199219 21 C 14.078125 21 13.199219 20.121094 13.199219 19 C 13.199219 18.914062 13.207031 18.828125 13.214844 18.742188 L 13.238281 18.679688 C 13.394531 17.75 14.1875 17.046875 15.109375 17.003906 C 15.136719 17 15.167969 17 15.199219 17 C 15.230469 17 15.261719 17 15.292969 17.003906 C 16.214844 17.046875 17.003906 17.75 17.160156 18.679688 L 17.199219 19 C 17.199219 20.121094 16.320312 21 15.199219 21 Z M 20 13.921875 C 20 13.921875 20.039062 14 20 14.078125 L 18.558594 18.121094 C 18.519531 18.160156 18.480469 18.199219 18.398438 18.199219 L 17.886719 18.199219 C 17.546875 17.035156 16.480469 16.199219 15.199219 16.199219 C 14.144531 16.199219 13.234375 16.769531 12.757812 17.621094 C 12.640625 17.8125 12.546875 18.019531 12.480469 18.238281 L 10.160156 18.238281 C 10.285156 17.832031 10.359375 17.425781 10.386719 17 L 12.398438 17 C 12.640625 17 12.800781 16.839844 12.800781 16.601562 C 12.800781 16.359375 12.640625 16.199219 12.398438 16.199219 L 10.386719 16.199219 C 10.363281 15.925781 10.324219 15.660156 10.261719 15.398438 L 11.601562 15.398438 C 11.839844 15.398438 12 15.238281 12 15 C 12 14.761719 11.839844 14.601562 11.601562 14.601562 L 10.003906 14.601562 C 9.894531 14.335938 9.761719 14.082031 9.613281 13.839844 L 19.839844 13.839844 C 19.921875 13.839844 20 13.878906 20 13.921875 Z M 12.039062 13 L 11.625 11.226562 L 11.601562 11.117188 L 15.871094 5.214844 C 16.121094 5.652344 16.539062 5.980469 17.039062 6.121094 L 12.199219 13 Z M 19.007812 5.628906 C 19.152344 5.488281 19.273438 5.328125 19.367188 5.148438 C 19.40625 5.078125 19.445312 5 19.480469 4.921875 L 22.039062 8.601562 L 20.640625 8.601562 L 19 5.640625 C 19.003906 5.636719 19.007812 5.632812 19.007812 5.628906 Z M 19.519531 9.679688 L 19.398438 9.398438 L 23.199219 9.398438 L 23.199219 11.761719 L 22.160156 11.640625 C 21 11.519531 20 10.761719 19.519531 9.679688 Z M 19.519531 9.679688"/>
</svg>

<svg xmlns="http://www.w3.org/2000/svg" width="32" height="32" viewBox="0 0 24 24">
    <path d="M15.2 18.2c-.438 0-.802.359-.802.8a.802.802 0 1 0 .8-.8zm0 0M5.2 15.8c-.438 0-.802.36-.802.802a.801.801 0 0 0 1.602 0c0-.442-.36-.801-.8-.801zm0 0M4.8 10.602h3.481c.239 0 .48-.122.598-.32.16-.243.2-.481.121-.723l-.559-2C8.36 7.239 8.04 7 7.68 7H4.8c-.44 0-.8.36-.8.8v2c0 .438.36.802.8.802zm0-2.801h2.88l.601 2h-3.48zm0 0"/>
    <path d="M23.96 12.012V9.039c0-.238-.16-.398-.401-.398h-.524l-3.512-5.004a1.98 1.98 0 0 0-1.921-1.438c-1.122 0-2 .88-2 2v.031l-4.227 5.88-.773-3.47a1.593 1.593 0 0 0-1.563-1.242H3.602C2.719 5.398 2 6.121 2 7v5.496c-1.219.95-2 2.434-2 4.106A5.19 5.19 0 0 0 5.2 21.8 5.182 5.182 0 0 0 9.815 19h2.582c0 1.559 1.243 2.8 2.801 2.8C16.762 21.8 18 20.56 18 19h.398c.364 0 .723-.2.883-.52l1.438-4.082c.16-.277.12-.636-.04-.918-.199-.32-.48-.48-.84-.48h-6.624l4.87-6.86c.075-.015.145-.035.212-.062l1.43 2.563h-.965c-.121 0-.242.039-.32.16-.083.078-.083.238-.044.36l.364.839c.597 1.32 1.879 2.281 3.316 2.441l1.07.114a1.17 1.17 0 0 1-1.148.843c-.238 0-.398.16-.398.403 0 .238.16.398.398.398 1.121 0 2-.879 2-2a.472.472 0 0 0-.04-.187zM17.603 3c.68 0 1.199.52 1.199 1.2 0 .027 0 .05-.004.073v.004c-.016.246-.11.493-.266.696-.218.265-.55.425-.93.425-.558 0-1.05-.414-1.18-.957a1.213 1.213 0 0 1-.023-.242c0-.68.524-1.199 1.204-1.199zM9.199 18.441l-.144.293a4.568 4.568 0 0 1-.473.688L7.48 18.32a.385.385 0 0 0-.558 0 .385.385 0 0 0 0 .559l1.101 1.101a4.37 4.37 0 0 1-2.421 1v-1.582c0-.238-.16-.398-.403-.398-.238 0-.398.16-.398.398v1.582a4.347 4.347 0 0 1-2.422-1L3.48 18.88a.385.385 0 0 0 0-.559.385.385 0 0 0-.558 0l-1.106 1.102a4.398 4.398 0 0 1-1-2.422h1.582c.243 0 .403-.16.403-.398 0-.243-.16-.403-.403-.403H.816a4.398 4.398 0 0 1 1-2.422l1.145 1.145c.078.078.16.117.277.117.082 0 .203-.039.282-.117a.39.39 0 0 0 0-.563l-1.141-1.14.262-.18a4.27 4.27 0 0 1 2.046-.809l.114-.011V13.8c0 .238.16.398.398.398.242 0 .403-.16.403-.398v-1.582a4.346 4.346 0 0 1 2.414 1.004l-1.137 1.136a.39.39 0 0 0 0 .563c.082.078.16.117.281.117.121 0 .238-.039.281-.117l1.133-1.133a4.36 4.36 0 0 1 1.008 2.41H8c-.238 0-.398.16-.398.403 0 .238.16.398.398.398h1.582c-.039.445-.145.867-.305 1.262-.023.058-.05.117-.078.18zM2.801 7c0-.441.36-.8.8-.8H9c.398 0 .719.28.8.64L11.2 13H8.96c-.015-.012-.026-.027-.042-.04a5.175 5.175 0 0 0-3.719-1.562c-.047 0-.097.004-.148.004h-.04c-.034.004-.074.004-.109.008H4.86c-.039.004-.074.008-.113.008-.012.004-.023.004-.031.004-.047.004-.09.008-.133.015H4.57a5.197 5.197 0 0 0-1.77.547zm12.398 14c-1.12 0-2-.879-2-2 0-.086.008-.172.016-.258l.023-.062c.157-.93.95-1.633 1.871-1.676.028-.004.059-.004.09-.004s.063 0 .094.004a2.01 2.01 0 0 1 1.867 1.676l.04.32c0 1.121-.88 2-2 2zM20 13.922s.04.078 0 .156l-1.441 4.043c-.04.04-.079.078-.16.078h-.512a2.78 2.78 0 0 0-2.688-2c-1.054 0-1.965.57-2.441 1.422-.117.192-.211.399-.278.617h-2.32c.125-.406.2-.812.227-1.238h2.011c.243 0 .403-.16.403-.398 0-.243-.16-.403-.403-.403h-2.011a5.427 5.427 0 0 0-.125-.8h1.34c.238 0 .398-.16.398-.399 0-.238-.16-.398-.398-.398h-1.598a5.382 5.382 0 0 0-.39-.762H19.84c.082 0 .16.039.16.082zM12.04 13l-.415-1.773-.023-.11 4.27-5.902c.25.437.667.765 1.167.906L12.2 13zm6.968-7.371c.144-.14.265-.3.36-.48.038-.07.077-.149.112-.227l2.56 3.68h-1.4L19 5.64c.004-.004.008-.008.008-.012zm.512 4.05l-.122-.28H23.2v2.363l-1.039-.121C21 11.52 20 10.76 19.52 9.68zm0 0"/>
</svg>
